X:283
T:Gin I Had a Bonny Lassie
R:Reel
B:The Athole Collection
M:C|
L:1/8
K:G Minor
d|BGdG B>cdf|AFcF A2FA|BGdG B>cdg|fdcA G2G:|
f|gagd gbgd|fgfc A2Ff|gagd gbgd|Bdgd B2Gd|gagd gbgd|
fgfc A2FA|BgcA dBbg|fdcA G2G||

